X: 2749
T:Kamaryns'ka
S:A. Humenyuk
Q:72
O:Ethnic Russian
N:Russian Folk Dance collected in Ukraine
M:2/4
L:1/16
A:Dykan'ka, Poltava region, Ukraine
K:G
(d2Bd) .c2.A2 | GFGB AGFE | FDEF G2G2 :: \
GFGB cBcd | cdcB AGFE
|1 FDEF dcBA :|2 FDEF G2{ABcdef}g2 |.d2.g2 ">"c4 | \
BdB2 AGA2 | AGA2 BAB2 | BAB2 cBc2 | BAB2 AGA2 |
AGA2 BAB2 | BAB2 cBc2 | B2d2 cBAG | FDEF G2G2 ||\
|: d2(Bd) .c2.A2 | GFGB AGFE | FDEF G2G2 :|
d2{ef}g2 c4 | d2{ef}g2 d2{efg}a2| \
z2 A2 ">"G4 | g2gg e2ee | \
d2dd {e}-d2dd | {e}-d2d2 {e}-d4 | \
d2{ef}g2 ">"c4 | B2d2 cBAG | FDEF G2 |]
